src/icons/play-btn.svg

<svg version="1.1" viewBox="0 0 72 72" xmlns="http://www.w3.org/2000/svg">
 <circle cx="36" cy="36" r="36" fill="#39B980"/>
 <path d="m49.916 36.796-21.192 12.565c0.3126-0.0108-0.2611 0.1659 0 0l-1.2237 0.6386c-0.4065 0.147-0.4065 0.147-0.4065-0.6386v-26.701c-0.011-0.3011-0.1532-1.3079 0-1.5706-0.2727 0.1475 0.1533-0.2627 0 0 0.2728-0.1475 1.3176-0.0108 1.6302 0-0.2611-0.1659 0.3126 0.0108 0 0l21.276 12.877c0.2466 0.1472 1.3589 1.2558 1.5 1.5 0-0.2795 0.1411 0.2442 0 0 0 0.2795-2.1827 1.6844-1.5842 1.3296-0.7286 0.432 0.4856-0.3676 0 0z" clip-rule="evenodd" fill="#fff" fill-rule="evenodd"/>
</svg>

<svg width="72" height="72" viewBox="0 0 72 72" fill="none" xmlns="http://www.w3.org/2000/svg">
<circle cx="36" cy="36" r="36" fill="#39B980"/>
<path fill-rule="evenodd" clip-rule="evenodd" d="M49.9158 36.7964L28.7237 49.3614C29.0363 49.3506 28.4626 49.5273 28.7237 49.3614C27.5 50 28.7237 49.3614 27.5 50C27.0935 50.147 27.0935 50.147 27.0935 49.3614V22.6607C27.0825 22.3596 26.9403 21.3528 27.0935 21.0901C26.8208 21.2376 27.2468 20.8274 27.0935 21.0901C27.3663 20.9426 28.4111 21.0793 28.7237 21.0901C28.4626 20.9242 29.0363 21.1009 28.7237 21.0901L50 33.9668C50.2466 34.114 51.3589 35.2226 51.5 35.4668C51.5 35.1873 51.6411 35.711 51.5 35.4668C51.5 35.7463 49.3173 37.1512 49.9158 36.7964C49.1872 37.2284 50.4014 36.4288 49.9158 36.7964Z" fill="white"/>
</svg>
